packages/tokens/icons/handsAndHeart/size32Px.svg

<svg viewBox="0 0 32 32" fill="none" xmlns="http://www.w3.org/2000/svg" width="1em" height="1em"><path d="M20.4615 24.5L25.9968 20.6904C26.5573 20.3047 27.3224 20.4299 27.7307 20.9743V20.9743C28.1542 21.539 28.0353 22.3408 27.4661 22.7582L21.264 27.3064C21.0925 27.4322 20.8853 27.5 20.6726 27.5H8.5V20.5939L10.5435 19.7377C10.8677 19.6018 11.2221 19.5539 11.5708 19.5986L18.157 20.4433C18.898 20.5384 19.4531 21.1692 19.4531 21.9163V21.9163C19.4531 22.7798 18.7193 23.4612 17.8582 23.3974L12.5 23" stroke="currentColor" stroke-linecap="round"/><path d="M21.2606 20.3611C21.0181 20.4933 20.9288 20.797 21.0611 21.0394C21.1933 21.2819 21.497 21.3712 21.7394 21.2389L21.2606 20.3611ZM25.5614 20.1421L25.1453 20.4194L25.5614 20.1421ZM26.416 20.5227L25.9774 19.8647L25.1453 20.4194L25.584 21.0774L26.416 20.5227ZM23.3556 19.2183L21.2606 20.3611L21.7394 21.2389L23.8344 20.0962L23.3556 19.2183ZM25.9774 19.8647C25.4028 19.0027 24.265 18.7223 23.3556 19.2183L23.8344 20.0962C24.2892 19.8482 24.858 19.9884 25.1453 20.4194L25.9774 19.8647Z" fill="currentColor"/><path d="M4.5 21C4.5 20.7239 4.72386 20.5 5 20.5H8C8.27614 20.5 8.5 20.7239 8.5 21V27C8.5 27.2761 8.27614 27.5 8 27.5H5C4.72386 27.5 4.5 27.2761 4.5 27V21Z" stroke="currentColor"/><path d="M23.5 5C23.5 4.72386 23.7238 4.5 24 4.5H27C27.2761 4.5 27.5 4.72386 27.5 5V11C27.5 11.2761 27.2761 11.5 27 11.5H24C23.7238 11.5 23.5 11.2761 23.5 11V5Z" stroke="currentColor"/><path d="M23.5 4.5H24V4H23.5V4.5ZM7.77115 11.545C7.63206 11.7836 7.71269 12.0897 7.95124 12.2288C8.1898 12.3679 8.49594 12.2873 8.63503 12.0487L7.77115 11.545ZM14 8.5V8C13.8328 8 13.6767 8.08355 13.5839 8.22265L14 8.5ZM16.5 8.5L16.7773 8.08397C16.6952 8.02922 16.5987 8 16.5 8V8.5ZM18 9.5L18.3535 9.85355C18.4594 9.74763 18.5123 9.5998 18.4975 9.45073C18.4828 9.30166 18.402 9.16707 18.2773 9.08397L18 9.5ZM20.5 11.5V11C20.3725 11 20.2499 11.0487 20.1571 11.136L20.5 11.5ZM23.5 11.5V12H24V11.5H23.5ZM15.2106 14.5744L14.8787 14.9484L15.2106 14.5744ZM11.2702 6.77482L11.5903 7.15893L11.2702 6.77482ZM10.8228 7.30387L10.3909 7.05202L10.8228 7.30387ZM23.5 4L14.7241 4V5L23.5 5V4ZM13.1236 4.57945L10.9501 6.39071L11.5903 7.15893L13.7638 5.34767L13.1236 4.57945ZM10.3909 7.05202L7.77115 11.545L8.63503 12.0487L11.2547 7.55572L10.3909 7.05202ZM13.416 10.2773L14.416 8.77735L13.5839 8.22265L12.5839 9.72265L13.416 10.2773ZM14 9H16.5V8H14V9ZM16.2226 8.91603L17.7226 9.91603L18.2773 9.08397L16.7773 8.08397L16.2226 8.91603ZM17.6464 9.14645L14.791 12.0019L15.4981 12.709L18.3535 9.85355L17.6464 9.14645ZM17.6114 14.9078L20.8428 11.864L20.1571 11.136L16.9257 14.1799L17.6114 14.9078ZM20.5 12H23.5V11H20.5V12ZM23 4.5V11.5H24V4.5H23ZM14.8787 14.9484C15.6628 15.6442 16.8483 15.6266 17.6114 14.9078L16.9257 14.1799C16.5395 14.5438 15.9394 14.5527 15.5425 14.2005L14.8787 14.9484ZM14.791 12.0019C13.9666 12.8262 14.0068 14.1746 14.8787 14.9484L15.5425 14.2005C15.1012 13.8088 15.0808 13.1262 15.4981 12.709L14.791 12.0019ZM10.9501 6.39071C10.7266 6.57693 10.5374 6.80072 10.3909 7.05202L11.2547 7.55572C11.3426 7.40494 11.4562 7.27066 11.5903 7.15893L10.9501 6.39071ZM14.7241 4C14.1392 4 13.5729 4.20504 13.1236 4.57945L13.7638 5.34767C14.0334 5.12302 14.3732 5 14.7241 5V4Z" fill="currentColor"/><path d="M23.6478 11.6401C23.9369 11.9578 24.1794 12.3029 24.3754 12.6667C25.465 14.6882 25.223 17.3543 23.5 19L23.4811 19.0181L19 23M15.4662 11.3856C13.4332 9.44295 10.248 9.55693 8.35218 11.6401C6.45633 13.7233 6.56757 16.9878 8.60083 18.9297L8.6197 18.9477L9.72094 20" stroke="currentColor"/></svg>

<svg xmlns="http://www.w3.org/2000/svg" fill="none" viewBox="0 0 32 32" width="1em" height="1em"><path stroke="currentColor" stroke-linecap="round" d="m20.462 24.5 5.535-3.81a1.269 1.269 0 0 1 1.734.284v0a1.268 1.268 0 0 1-.265 1.784l-6.202 4.548a1 1 0 0 1-.591.194H8.5v-6.906l2.043-.856a2 2 0 0 1 1.028-.14l6.586.845a1.485 1.485 0 0 1 1.296 1.473v0c0 .864-.734 1.545-1.595 1.481L12.5 23"/><path fill="currentColor" d="M21.26 20.361a.5.5 0 1 0 .48.878l-.48-.878Zm4.301-.219-.416.277.416-.277Zm.855.38-.439-.657-.832.554.439.658.832-.554Zm-3.06-1.304-2.095 1.143.478.878 2.095-1.143-.478-.878Zm2.621.647a2 2 0 0 0-2.621-.647l.478.878a1 1 0 0 1 1.311.323l.832-.554Z"/><path stroke="currentColor" d="M4.5 21a.5.5 0 0 1 .5-.5h3a.5.5 0 0 1 .5.5v6a.5.5 0 0 1-.5.5H5a.5.5 0 0 1-.5-.5v-6Zm19-16a.5.5 0 0 1 .5-.5h3a.5.5 0 0 1 .5.5v6a.5.5 0 0 1-.5.5h-3a.5.5 0 0 1-.5-.5V5Z"/><path fill="currentColor" d="M23.5 4.5h.5V4h-.5v.5ZM7.771 11.545a.5.5 0 1 0 .864.504l-.864-.504ZM14 8.5V8a.5.5 0 0 0-.416.223L14 8.5Zm2.5 0 .277-.416A.5.5 0 0 0 16.5 8v.5Zm1.5 1 .354.354a.5.5 0 0 0-.077-.77L18 9.5Zm2.5 2V11a.5.5 0 0 0-.343.136l.343.364Zm3 0v.5h.5v-.5h-.5Zm-8.29 3.074-.331.374.332-.374Zm-3.94-7.8.32.385-.32-.384Zm-.447.53-.432-.252.432.252ZM23.5 4h-8.776v1H23.5V4Zm-10.376.58L10.95 6.39l.64.769 2.174-1.811-.64-.769ZM10.39 7.051l-2.62 4.493.864.504 2.62-4.493-.864-.504Zm3.025 3.225 1-1.5-.832-.554-1 1.5.832.554ZM14 9h2.5V8H14v1Zm2.223-.084 1.5 1 .554-.832-1.5-1-.554.832Zm1.423.23-2.855 2.856.707.707 2.856-2.855-.708-.708Zm-.035 5.762 3.232-3.044-.686-.728-3.231 3.044.685.728ZM20.5 12h3v-1h-3v1ZM23 4.5v7h1v-7h-1Zm-8.121 10.448c.784.696 1.97.679 2.732-.04l-.685-.728a1.025 1.025 0 0 1-1.383.02l-.664.748Zm-.088-2.946a2.025 2.025 0 0 0 .088 2.946l.664-.748a1.025 1.025 0 0 1-.045-1.491l-.707-.707Zm-3.84-5.611c-.224.186-.414.41-.56.661l.864.504a1.5 1.5 0 0 1 .335-.397l-.64-.768ZM14.723 4a2.5 2.5 0 0 0-1.6.58l.64.768a1.5 1.5 0 0 1 .96-.348V4Z"/><path stroke="currentColor" d="M23.648 11.64c.289.318.531.663.727 1.027 1.09 2.021.848 4.687-.875 6.333l-.019.018L19 23m-3.534-11.614a4.949 4.949 0 0 0-7.114.254c-1.896 2.083-1.784 5.348.249 7.29l.019.018L9.72 20"/></svg>
